static/phone.svg

<svg xmlns="http://www.w3.org/2000/svg" width="24" height="24" fill="none" viewBox="0 0 24 24"><g clip-path="url(#phone_svg_a)"><path fill="currentColor" d="M6.54 5q.09 1.34.45 2.59l-1.2 1.2Q5.17 6.99 5.03 5zm9.86 12.02q1.28.36 2.6.45v1.49a15 15 0 0 1-3.8-.75zM7.5 3H4a1 1 0 0 0-1 1 17 17 0 0 0 17 17 1 1 0 0 0 1-1v-3.49a1 1 0 0 0-1-1q-1.87 0-3.57-.57a1.02 1.02 0 0 0-1.02.24l-2.2 2.2a15 15 0 0 1-6.59-6.59l2.2-2.2a1 1 0 0 0 .25-1.02A11 11 0 0 1 8.5 4a1 1 0 0 0-1-1"/></g><defs><clipPath id="phone_svg_a"><path fill="#fff" d="M0 0h24v24H0z"/></clipPath></defs></svg>

<svg width="24" height="24" viewBox="0 0 24 24" fill="none" xmlns="http://www.w3.org/2000/svg">
<g clip-path="url(#clip0_77_39)">
<path d="M6.54 5C6.6 5.89 6.75 6.76 6.99 7.59L5.79 8.79C5.38 7.59 5.12 6.32 5.03 5H6.54ZM16.4 17.02C17.25 17.26 18.12 17.41 19 17.47V18.96C17.68 18.87 16.41 18.61 15.2 18.21L16.4 17.02ZM7.5 3H4C3.45 3 3 3.45 3 4C3 13.39 10.61 21 20 21C20.55 21 21 20.55 21 20V16.51C21 15.96 20.55 15.51 20 15.51C18.76 15.51 17.55 15.31 16.43 14.94C16.33 14.9 16.22 14.89 16.12 14.89C15.86 14.89 15.61 14.99 15.41 15.18L13.21 17.38C10.38 15.93 8.06 13.62 6.62 10.79L8.82 8.59C9.1 8.31 9.18 7.92 9.07 7.57C8.7 6.45 8.5 5.25 8.5 4C8.5 3.45 8.05 3 7.5 3Z" fill="#1C1C1C"/>
</g>
<defs>
<clipPath id="clip0_77_39">
<rect width="24" height="24" fill="white"/>
</clipPath>
</defs>
</svg>
